packages/ui-icons/svg/Line/pinterest.svg

<svg viewBox="0 0 1920 1920" version="1.1" xmlns="http://www.w3.org/2000/svg">
    <path d="M1368.61867,1166.432 C1277.84533,1263.072 1162.00533,1308.832 1034.00533,1299.232 C938.432,1291.97867 813.952,1225.52533 812.672,1224.88533 L748.885333,1190.64533 L735.125333,1261.68533 C697.472,1455.28533 652.778667,1596.512 553.472,1701.472 C541.845333,1486.85867 592.405333,1301.25867 641.472,1120.992 C662.058667,1045.472 683.285333,967.285333 699.498667,888.778667 L703.658667,868.405333 L692.885333,850.592 C642.005333,766.325333 656.938667,616.992 724.138667,537.205333 C749.418667,507.018667 777.578667,492.085333 809.365333,492.085333 C823.978667,492.085333 839.338667,495.285333 855.552,501.578667 C924.138667,528.352 917.738667,594.378667 865.365333,766.752 C830.485333,881.525333 794.432,1000.13867 846.378667,1086.96533 C873.472,1132.192 920.512,1161.73867 986.325333,1174.752 C1132.88533,1203.44533 1262.37867,1135.17867 1341.632,986.592 C1440.61867,801.205333 1443.60533,499.765333 1290.32533,346.485333 C1122.00533,178.378667 846.592,147.445333 620.245333,271.178667 C418.538667,381.472 321.685333,579.765333 367.338667,788.618667 C387.498667,880.565333 350.698667,925.152 326.058667,943.925333 C267.498667,897.952 263.872,773.685333 267.712,666.912 C279.552,345.312 562.965333,141.152 823.872,112.458667 C1144.29867,77.0453333 1492.992,215.712 1539.49867,549.045333 C1571.60533,779.338667 1504.61867,1021.68533 1368.61867,1166.432 M1645.09867,534.325333 C1595.712,180.618667 1245.312,-41.1413333 812.138667,6.432 C506.965333,40.032 175.125333,281.632 161.152,663.072 C155.178667,825.098667 167.765333,998.325333 306.112,1054.53867 L325.632,1062.432 L345.152,1054.96533 C405.738667,1031.81867 510.058667,941.578667 471.552,765.792 C435.818667,602.592 510.592,452.725333 671.445333,364.725333 C822.805333,281.952 1057.472,264.672 1214.912,422.005333 C1321.57867,528.672 1336.832,768.992 1247.552,936.352 C1207.65867,1011.12533 1133.73867,1095.072 1007.01867,1070.112 C954.432,1059.65867 941.952,1038.96533 937.898667,1032.13867 C910.272,985.952 940.565333,886.005333 967.445333,797.792 C1011.81867,651.658667 1067.17867,469.578667 894.378667,402.165333 C800.298667,365.578667 708.672,389.792 642.432,468.512 C551.125333,576.992 529.578667,762.912 590.912,886.325333 C576.192,954.912 557.845333,1022.112 538.538667,1093.04533 C479.125333,1311.17867 417.685333,1536.77867 457.685333,1816.56533 L470.165333,1903.49867 L541.525333,1852.40533 C706.645333,1734.32533 777.152,1570.69867 825.898667,1349.152 C878.698667,1372.08533 956.032,1400.24533 1025.89867,1405.57867 C1188.032,1417.73867 1332.77867,1360.352 1446.37867,1239.49867 C1603.60533,1072.032 1681.57867,795.338667 1645.09867,534.325333" stroke="none" stroke-width="1" fill-rule="evenodd"/>
</svg>

<svg viewBox="0 0 1920 1920" version="1.1" xmlns="http://www.w3.org/2000/svg">
    <path d="M1368.619 1166.432c-90.774 96.64-206.614 142.4-334.614 132.8-95.573-7.253-220.053-73.707-221.333-74.347l-63.787-34.24-13.76 71.04c-37.653 193.6-82.346 334.827-181.653 439.787-11.627-214.613 38.933-400.213 88-580.48 20.587-75.52 41.813-153.707 58.027-232.213l4.16-20.374-10.774-17.813c-50.88-84.267-35.946-233.6 31.254-313.387 25.28-30.186 53.44-45.12 85.226-45.12 14.614 0 29.974 3.2 46.187 9.494 68.587 26.773 62.187 92.8 9.813 265.173-34.88 114.773-70.933 233.387-18.986 320.213 27.093 45.227 74.133 74.774 139.946 87.787 146.56 28.693 276.054-39.573 355.307-188.16 98.987-185.387 101.973-486.827-51.307-640.107-168.32-168.106-443.733-199.04-670.08-75.306-201.706 110.293-298.56 308.586-252.906 517.44 20.16 91.946-16.64 136.533-41.28 155.306-58.56-45.973-62.187-170.24-58.347-277.013 11.84-321.6 295.253-525.76 556.16-554.453 320.427-35.414 669.12 103.253 715.627 436.586 32.106 230.294-34.88 472.64-170.88 617.387m276.48-632.107C1595.712 180.62 1245.312-41.14 812.139 6.432c-305.174 33.6-637.014 275.2-650.987 656.64-5.973 162.027 6.613 335.253 144.96 391.467l19.52 7.893 19.52-7.467c60.587-23.146 164.907-113.386 126.4-289.173-35.733-163.2 39.04-313.067 199.893-401.067 151.36-82.773 386.027-100.053 543.467 57.28 106.667 106.667 121.92 346.987 32.64 514.347-39.893 74.773-113.813 158.72-240.533 133.76-52.587-10.453-65.067-31.147-69.12-37.973-27.627-46.187 2.666-146.134 29.546-234.347 44.374-146.133 99.734-328.213-73.066-395.627-94.08-36.586-185.707-12.373-251.947 66.347-91.307 108.48-112.853 294.4-51.52 417.813-14.72 68.587-33.067 135.787-52.373 206.72-59.414 218.134-120.854 443.734-80.854 723.52l12.48 86.934 71.36-51.094c165.12-118.08 235.627-281.706 284.374-503.253 52.8 22.933 130.133 51.093 200 56.427 162.133 12.16 306.88-45.227 420.48-166.08 157.226-167.467 235.2-444.16 198.72-705.174" stroke="none" stroke-width="1" fill-rule="evenodd"/>
</svg>
